packages/tokens/icons/b2B/size32Px.svg

<svg viewBox="0 0 32 32" fill="none" xmlns="http://www.w3.org/2000/svg" width="1em" height="1em"><rect x="9.5" y="11.5" width="3" height="5" rx="0.5" stroke="currentColor"/><path d="M7 2.5L15 2.5C15.2761 2.5 15.5 2.72386 15.5 3V16C15.5 16.2761 15.2761 16.5 15 16.5H7C6.72386 16.5 6.5 16.2761 6.5 16L6.5 3C6.5 2.72386 6.72386 2.5 7 2.5Z" stroke="currentColor"/><path d="M7 4.5H5.5C4.94772 4.5 4.5 4.94772 4.5 5.5L4.5 15.5C4.5 16.0523 4.94772 16.5 5.5 16.5H7" stroke="currentColor"/><path d="M8.5 5.5H13.5" stroke="currentColor" stroke-linecap="round"/><path d="M8.5 8.5H13.5" stroke="currentColor" stroke-linecap="round"/><rect x="21.5" y="24.5" width="3" height="5" rx="0.5" stroke="currentColor"/><path d="M19 15.5H27C27.2761 15.5 27.5 15.7239 27.5 16V29C27.5 29.2761 27.2761 29.5 27 29.5H19C18.7239 29.5 18.5 29.2761 18.5 29V16C18.5 15.7239 18.7239 15.5 19 15.5Z" stroke="currentColor"/><path d="M19 17.5H17.5C16.9477 17.5 16.5 17.9477 16.5 18.5V28.5C16.5 29.0523 16.9477 29.5 17.5 29.5H19" stroke="currentColor"/><path d="M20.5 18.5H25.5" stroke="currentColor" stroke-linecap="round"/><path d="M20.5 21.5H25.5" stroke="currentColor" stroke-linecap="round"/><path d="M17.5 8.5L23.5 8.5C24.6046 8.5 25.5 9.39543 25.5 10.5L25.5 12.5" stroke="currentColor" stroke-linecap="round" stroke-linejoin="round"/><path d="M19.5 10.5L17.5 8.5L19.5 6.5" stroke="currentColor" stroke-linecap="round" stroke-linejoin="round"/><path d="M14.5 25.5L8.5 25.5C7.39543 25.5 6.5 24.6046 6.5 23.5L6.5 21.5" stroke="currentColor" stroke-linecap="round" stroke-linejoin="round"/><path d="M12.5 23.5L14.5 25.5L12.5 27.5" stroke="currentColor" stroke-linecap="round" stroke-linejoin="round"/></svg>

<svg xmlns="http://www.w3.org/2000/svg" fill="none" viewBox="0 0 32 32" width="1em" height="1em"><rect width="3" height="5" x="9.5" y="11.5" stroke="currentColor" rx=".5"/><path stroke="currentColor" d="M7 2.5h8a.5.5 0 0 1 .5.5v13a.5.5 0 0 1-.5.5H7a.5.5 0 0 1-.5-.5V3a.5.5 0 0 1 .5-.5Z"/><path stroke="currentColor" d="M7 4.5H5.5a1 1 0 0 0-1 1v10a1 1 0 0 0 1 1H7"/><path stroke="currentColor" stroke-linecap="round" d="M8.5 5.5h5m-5 3h5"/><rect width="3" height="5" x="21.5" y="24.5" stroke="currentColor" rx=".5"/><path stroke="currentColor" d="M19 15.5h8a.5.5 0 0 1 .5.5v13a.5.5 0 0 1-.5.5h-8a.5.5 0 0 1-.5-.5V16a.5.5 0 0 1 .5-.5Z"/><path stroke="currentColor" d="M19 17.5h-1.5a1 1 0 0 0-1 1v10a1 1 0 0 0 1 1H19"/><path stroke="currentColor" stroke-linecap="round" d="M20.5 18.5h5m-5 3h5"/><path stroke="currentColor" stroke-linecap="round" stroke-linejoin="round" d="M17.5 8.5h6a2 2 0 0 1 2 2v2"/><path stroke="currentColor" stroke-linecap="round" stroke-linejoin="round" d="m19.5 10.5-2-2 2-2m-5 19h-6a2 2 0 0 1-2-2v-2"/><path stroke="currentColor" stroke-linecap="round" stroke-linejoin="round" d="m12.5 23.5 2 2-2 2"/></svg>
